src/components/Icon/utils/svgsOptimized/star-outlined.svg

<svg width="24" height="24" viewBox="0 0 24 24"  xmlns="http://www.w3.org/2000/svg">
<path fill-rule="evenodd" clip-rule="evenodd" d="M12 4.25C12.3248 4.25 12.6128 4.45912 12.7132 4.76803L14.2847 9.6H19.36C19.685 9.6 19.9731 9.80937 20.0734 10.1185C20.1737 10.4277 20.0635 10.7663 19.8003 10.9571L15.692 13.9368L17.2632 18.768C17.3637 19.077 17.2539 19.4154 16.9912 19.6065C16.7285 19.7976 16.3726 19.7978 16.1097 19.6071L12 16.6265L7.89034 19.6071C7.62738 19.7978 7.27153 19.7976 7.00883 19.6065C6.74613 19.4154 6.63631 19.077 6.73678 18.768L8.30805 13.9368L4.19967 10.9571C3.93655 10.7663 3.8263 10.4277 3.92662 10.1185C4.02693 9.80937 4.31497 9.6 4.64 9.6H9.71526L11.2868 4.76803C11.3872 4.45912 11.6752 4.25 12 4.25ZM12 7.42493L10.9732 10.582C10.8728 10.8909 10.5848 11.1 10.26 11.1H6.95153L9.63034 13.0429C9.89361 13.2338 10.0038 13.5727 9.90323 13.882L8.87648 17.0389L11.5597 15.0929C11.8223 14.9024 12.1777 14.9024 12.4403 15.0929L15.1235 17.0389L14.0968 13.882C13.9962 13.5727 14.1064 13.2338 14.3697 13.0429L17.0485 11.1H13.74C13.4152 11.1 13.1272 10.8909 13.0268 10.582L12 7.42493Z" />
</svg>

<?xml version="1.0" encoding="utf-8"?><svg width="24" height="24" xmlns="http://www.w3.org/2000/svg" viewBox="0 0 24 24"><path fill-rule="evenodd" clip-rule="evenodd" d="M12 4.25a.75.75 0 0 1 .713.518L14.285 9.6h5.075a.75.75 0 0 1 .44 1.357l-4.108 2.98 1.571 4.831a.75.75 0 0 1-1.153.84L12 16.625l-4.11 2.981a.75.75 0 0 1-1.153-.839l1.571-4.831-4.108-2.98A.75.75 0 0 1 4.64 9.6h5.075l1.572-4.832A.75.75 0 0 1 12 4.25Zm0 3.175-1.027 3.157a.75.75 0 0 1-.713.518H6.952l2.678 1.943a.75.75 0 0 1 .273.839l-1.027 3.157 2.684-1.946a.75.75 0 0 1 .88 0l2.684 1.946-1.027-3.157a.75.75 0 0 1 .273-.84l2.679-1.942H13.74a.75.75 0 0 1-.713-.518L12 7.425Z"/></svg>
